X:120
T:Skellemefago
T:Don Pedro
M:6/4
L:1/4
K:GMix
Bcd d2d|Bcd d2d|e^fg g2G|cdB A2B|c>de dB2 |A2 G E3 | GGB AAc | BGG G2G||
%
%
